X: 8
T: The Pretty Girl Milking Her Cow
R: waltz
M: 3/4
L: 1/8
K: Ador
(AB)|c3e c2|Bd3 B2|A4(G2|G4) AB|c3e c2|Bd3 B2|A6-|A4(AB)|
ce3 c2|B2 g>c {d}cB|G2G4-|G4 ee/d/|c2 B{B}B AA/G/|E2 A3B|A6-|A4 AB||
c2 B{B}B A>B|d2 B<A B>G|G2 G2 AB|c2 B{B}B A>B|d2 d2 B2|A2 A2 AB|
c{d}c c<B B<A|B2 B2 g2|g2 c{d}c/B/ B<G|G4 e2|e2 ed/B/ c2|
c2 B{B}B AA/G/|E2 A3B |A6|A2 AB c2|d2 ef g2|
g4 c{d}c |B{B}B G4|GG/F/ GA Bc|c2 cB cd|ea a4|{aba}ag a4|
b2 c'2 b2|a4 ag|e2 =f4|ee/d/ BA Bd|d2 BA A2|G4 AB|
c2 B{B}B AA/G/ |E2 A3B|A6|AB c3e|e2 c3B|Bd d2 BA |AG G4 |
AB c3e|cA Bd d2|B2 B{B}B A2 |A2 AB c2|ce e2 cB|Bg g2 cc/B/|
B<G G4|e2 ed cB|c2 B{B}B AA/G/| E2 A3B|A6| A4 AB|
c3B cd|ef g4|cc/B/ B<G G2|GG/F/ GA Bc|c2 cB cd|ea a4|{aba}ag a4|
b2 c'2 b2|a4 ag|e2 =f4|ee/d/ BA Bg|g2 c2 ^A=A|A2 G4|
AB c2 B{B}B|AA/G/ e2 A2|AB A4|A6||


Tune 1758	Setting 27219

